storage/app/icons/phosphoricons/bold/note-bold.svg

<svg xmlns="http://www.w3.org/2000/svg" fill="currentColor" viewBox="0 0 256 256"><path d="M84 108a12 12 0 0 1 12-12h64a12 12 0 0 1 0 24H96a12 12 0 0 1-12-12m32 28H96a12 12 0 0 0 0 24h20a12 12 0 0 0 0-24m112-88v108.69a19.86 19.86 0 0 1-5.86 14.14l-51.31 51.31a19.86 19.86 0 0 1-14.14 5.86H48a20 20 0 0 1-20-20V48a20 20 0 0 1 20-20h160a20 20 0 0 1 20 20M52 204h92v-48a12 12 0 0 1 12-12h48V52H52Zm139-36h-23v23Z"/></svg>

<svg xmlns="http://www.w3.org/2000/svg" viewBox="0 0 256 256" fill="currentColor"><path d="M84,108A12,12,0,0,1,96,96h64a12,12,0,0,1,0,24H96A12,12,0,0,1,84,108Zm32,28H96a12,12,0,0,0,0,24h20a12,12,0,0,0,0-24ZM228,48V156.69a19.86,19.86,0,0,1-5.86,14.14l-51.31,51.31A19.86,19.86,0,0,1,156.69,228H48a20,20,0,0,1-20-20V48A20,20,0,0,1,48,28H208A20,20,0,0,1,228,48ZM52,204h92V156a12,12,0,0,1,12-12h48V52H52Zm139-36H168v23Z"/></svg>
